pointercrate-demonlist-pages/static/images/flags/wf.svg

<?xml version="1.0" encoding="UTF-8"?>
<svg width="900" height="600" viewBox="0 0 150 100" xmlns="http://www.w3.org/2000/svg">
 <path d="M0,0H150V100H0z" fill="#ed2939"/>
 <path d="M0,0H40V40H0z" fill="#fff"/>
 <path d="M0,0H20V40H0z" fill="#002395"/>
 <path d="M0,40H60V0" fill="none" stroke="#fff"/>
 <path d="m105 46-12-12h24zm-4 4-12-12v24zm4 4-12 12h24zm4-4 12-12v24z" fill="#fff"/>
</svg>

<svg xmlns="http://www.w3.org/2000/svg" height="600" width="900" viewBox="0 0 150 100">
<path d="M0,0H150V100H0z" fill="#ed2939"/>
<path d="M0,0H40V40H0z" fill="#fff"/>
<path d="M0,0H20V40H0z" fill="#002395"/>
<path d="M0,40H60V0" fill="none" stroke="#fff"/>
<path d="M105,46 93,34H117zM101,50 89,38V62zM105,54 93,66H117zM109,50 121,38V62z" fill="#fff"/>
</svg>
